images/partners/partner-2.svg

<svg width="72" height="18" viewBox="0 0 72 18" fill="none" xmlns="http://www.w3.org/2000/svg">
<g clip-path="url(#clip0_43_1846)">
<path d="M21.6682 12.5061H26.7602V10.9724H23.478V5.19531H21.6682V12.5061Z" fill="#D1D1D1"/>
<path d="M29.777 11.4827C29.051 11.4827 28.6727 10.8488 28.6727 9.89789C28.6727 8.94698 29.051 8.30281 29.777 8.30281C30.5029 8.30281 30.8915 8.94698 30.8915 9.89789C30.8915 10.8488 30.5029 11.4827 29.777 11.4827ZM29.7872 12.6688C31.4743 12.6688 32.5786 11.4725 32.5786 9.89789C32.5786 8.32326 31.4743 7.12695 29.7872 7.12695C28.1103 7.12695 26.9856 8.32326 26.9856 9.89789C26.9856 11.4725 28.1103 12.6688 29.7872 12.6688Z" fill="#D1D1D1"/>
<path d="M35.4989 14.3155C36.276 14.3155 36.961 14.1417 37.4212 13.7327C37.8404 13.3543 38.1164 12.7818 38.1164 11.9944V7.27056H36.5214V7.83293H36.5009C36.1942 7.39326 35.7238 7.11719 35.0285 7.11719C33.73 7.11719 32.8302 8.20102 32.8302 9.73475C32.8302 11.3401 33.9243 12.2194 35.1001 12.2194C35.7341 12.2194 36.1328 11.9638 36.4396 11.6161H36.4805V12.1376C36.4805 12.7715 36.184 13.1396 35.4784 13.1396C34.9263 13.1396 34.6502 12.9045 34.5582 12.6284H32.9427C33.1063 13.7224 34.0572 14.3155 35.4989 14.3155ZM35.4887 10.9822C34.8649 10.9822 34.456 10.4709 34.456 9.68363C34.456 8.88609 34.8649 8.37484 35.4887 8.37484C36.184 8.37484 36.552 8.96789 36.552 9.6734C36.552 10.4096 36.2146 10.9822 35.4887 10.9822Z" fill="#D1D1D1"/>
<path d="M41.3961 11.4827C40.6702 11.4827 40.2918 10.8488 40.2918 9.89789C40.2918 8.94698 40.6702 8.30281 41.3961 8.30281C42.1221 8.30281 42.5106 8.94698 42.5106 9.89789C42.5106 10.8488 42.1221 11.4827 41.3961 11.4827ZM41.4063 12.6688C43.0934 12.6688 44.1977 11.4725 44.1977 9.89789C44.1977 8.32326 43.0934 7.12695 41.4063 7.12695C39.7295 7.12695 38.6047 8.32326 38.6047 9.89789C38.6047 11.4725 39.7295 12.6688 41.4063 12.6688Z" fill="#D1D1D1"/>
<path d="M44.6843 12.5061H46.351V7.27096H44.6843V12.5061ZM44.6843 6.54499H46.351V5.19531H44.6843V6.54499Z" fill="#D1D1D1"/>
<path d="M47.0743 14.2337H48.741V11.9638H48.7614C49.0886 12.4034 49.5692 12.6693 50.244 12.6693C51.6142 12.6693 52.5242 11.5854 52.5242 9.88812C52.5242 8.3135 51.6755 7.11719 50.2849 7.11719C49.5692 7.11719 49.058 7.43416 48.7001 7.9045H48.6694V7.27056H47.0743V14.2337ZM49.8146 11.381C49.0989 11.381 48.6899 10.7981 48.6899 9.94947C48.6899 9.10081 49.058 8.45664 49.7839 8.45664C50.4997 8.45664 50.8371 9.04969 50.8371 9.94947C50.8371 10.839 50.4485 11.381 49.8146 11.381Z" fill="#D1D1D1"/>
<path d="M55.2376 12.6693C56.6078 12.6693 57.62 12.0762 57.62 10.9311C57.62 9.5916 56.5362 9.35643 55.616 9.20306C54.9513 9.08036 54.3583 9.02924 54.3583 8.66114C54.3583 8.33395 54.6753 8.18057 55.0843 8.18057C55.5444 8.18057 55.8614 8.32372 55.9227 8.79406H57.4564C57.3746 7.76135 56.5771 7.11719 55.0945 7.11719C53.8573 7.11719 52.8348 7.68978 52.8348 8.79406C52.8348 10.021 53.8062 10.2664 54.7162 10.4198C55.4115 10.5425 56.0454 10.5936 56.0454 11.064C56.0454 11.4014 55.7284 11.5854 55.2274 11.5854C54.6753 11.5854 54.3276 11.3298 54.2663 10.8084H52.6917C52.7428 11.9638 53.7039 12.6693 55.2376 12.6693Z" fill="#D1D1D1"/>
<path d="M59.8839 12.658C60.6099 12.658 61.07 12.3717 61.4483 11.8605H61.479V12.5047H63.0741V7.26953H61.4074V10.1938C61.4074 10.8176 61.0598 11.247 60.4872 11.247C59.9555 11.247 59.6999 10.93 59.6999 10.3574V7.26953H58.0435V10.7051C58.0435 11.8707 58.6774 12.658 59.8839 12.658Z" fill="#D1D1D1"/>
<path d="M63.7988 12.5057H65.4655V9.57115C65.4655 8.94744 65.7722 8.50777 66.2937 8.50777C66.7947 8.50777 67.0299 8.83496 67.0299 9.39733V12.5057H68.6965V9.57115C68.6965 8.94744 68.9931 8.50777 69.5247 8.50777C70.0258 8.50777 70.2609 8.83496 70.2609 9.39733V12.5057H71.9276V9.10081C71.9276 7.92495 71.3345 7.11719 70.1485 7.11719C69.4736 7.11719 68.9113 7.40348 68.5023 8.03742H68.4818C68.216 7.47506 67.6945 7.11719 67.0094 7.11719C66.2528 7.11719 65.7518 7.47506 65.4246 8.01697H65.3939V7.27056H63.7988V12.5057Z" fill="#D1D1D1"/>
<path fill-rule="evenodd" clip-rule="evenodd" d="M8.8122 0.410156C13.6101 0.410156 17.4996 4.29964 17.4996 9.09756C17.4996 13.8955 13.6101 17.785 8.8122 17.785C4.01424 17.785 0.124756 13.8955 0.124756 9.09756C0.124756 4.29964 4.01424 0.410156 8.8122 0.410156ZM17.1662 9.09756C17.1662 4.48381 13.4259 0.743581 8.8122 0.743581C8.44001 0.743581 8.07358 0.767916 7.71426 0.815082C7.94641 0.794786 8.18132 0.784425 8.41871 0.784425C12.8274 0.784425 16.4014 4.35838 16.4014 8.76709C16.4014 13.1757 12.8274 16.7497 8.41871 16.7497C4.24487 16.7497 0.819191 13.5464 0.46608 9.46408C0.657902 13.9078 4.32119 17.4516 8.8122 17.4516C13.4259 17.4516 17.1662 13.7114 17.1662 9.09756ZM16.0679 8.76709C16.0679 4.54252 12.6433 1.11785 8.41871 1.11785C8.07571 1.11785 7.73795 1.14043 7.40688 1.18418C7.61073 1.16703 7.81698 1.15828 8.02527 1.15828C12.0447 1.15828 15.3031 4.41671 15.3031 8.43614C15.3031 12.4556 12.0447 15.714 8.02527 15.714C4.22477 15.714 1.10465 12.8009 0.776016 9.0858C0.943103 13.1625 4.30095 16.4163 8.41871 16.4163C12.6433 16.4163 16.0679 12.9916 16.0679 8.76709ZM8.02527 1.49171C11.8606 1.49171 14.9697 4.60084 14.9697 8.43614C14.9697 12.2714 11.8606 15.3806 8.02527 15.3806C4.27884 15.3806 1.22528 12.4138 1.08582 8.70148C1.38692 12.0522 4.20271 14.6783 7.63187 14.6783C11.2618 14.6783 14.2045 11.7356 14.2045 8.10562C14.2045 4.47563 11.2618 1.53296 7.63187 1.53296C7.44407 1.53296 7.2581 1.54084 7.07431 1.55628C7.38523 1.5137 7.70267 1.49171 8.02527 1.49171ZM13.8711 8.10562C13.8711 4.65981 11.0777 1.86639 7.63187 1.86639C7.34071 1.86639 7.0542 1.88633 6.7737 1.92492C6.92686 1.91293 7.08168 1.90683 7.23795 1.90683C10.4787 1.90683 13.1059 4.53395 13.1059 7.77472C13.1059 11.0154 10.4787 13.6426 7.23795 13.6426C4.1877 13.6426 1.68103 11.3152 1.3969 8.33939C1.51982 11.6769 4.26427 14.3449 7.63187 14.3449C11.0777 14.3449 13.8711 11.5515 13.8711 8.10562ZM7.23795 2.24025C10.2945 2.24025 12.7724 4.71813 12.7724 7.77472C12.7724 10.8313 10.2945 13.3092 7.23795 13.3092C4.24158 13.3092 1.80136 10.928 1.70638 7.95468C1.9629 10.5664 4.16542 12.6069 6.84451 12.6069C9.69605 12.6069 12.0076 10.2953 12.0076 7.44378C12.0076 4.59228 9.69605 2.28068 6.84451 2.28068C6.71376 2.28068 6.58412 2.28554 6.45579 2.29509C6.71133 2.25895 6.97245 2.24025 7.23795 2.24025ZM11.6742 7.44378C11.6742 4.77641 9.51187 2.61411 6.84451 2.61411C6.60103 2.61411 6.36177 2.63212 6.12796 2.6669C6.23468 2.65925 6.34243 2.65536 6.45111 2.65536C8.91313 2.65536 10.909 4.65124 10.909 7.11326C10.909 9.57532 8.91313 11.5712 6.45111 11.5712C4.14403 11.5712 2.24629 9.81867 2.01652 7.57227C2.08464 10.1802 4.22013 12.2735 6.84451 12.2735C9.51187 12.2735 11.6742 10.1111 11.6742 7.44378ZM6.45111 2.98879C8.72899 2.98879 10.5756 4.83537 10.5756 7.11326C10.5756 9.39118 8.72899 11.2378 6.45111 11.2378C4.20219 11.2378 2.37368 9.43788 2.3275 7.20004C2.53524 9.07626 4.12604 10.5355 6.05766 10.5355C8.13046 10.5355 9.81078 8.85515 9.81078 6.78236C9.81078 4.70957 8.13046 3.02922 6.05766 3.02922C5.97838 3.02922 5.89969 3.03168 5.82164 3.03652C6.02686 3.00509 6.23707 2.98879 6.45111 2.98879ZM9.47737 6.78236C9.47737 4.8937 7.94632 3.36265 6.05766 3.36265C5.86799 3.36265 5.68194 3.37809 5.50067 3.40778C5.55469 3.40493 5.60905 3.40349 5.66379 3.40349C7.34732 3.40349 8.71212 4.76827 8.71212 6.45184C8.71212 8.1354 7.34732 9.50021 5.66379 9.50021C4.10707 9.50021 2.8229 8.3333 2.63823 6.82649C2.66187 8.69483 4.18375 10.2021 6.05766 10.2021C7.94632 10.2021 9.47737 8.67101 9.47737 6.78236ZM5.66379 3.73691C7.16318 3.73691 8.37871 4.95241 8.37871 6.45184C8.37871 7.95127 7.16318 9.16675 5.66379 9.16675C4.16437 9.16675 2.94885 7.95127 2.94885 6.45184C2.94885 6.44826 2.94886 6.44464 2.94887 6.44106C3.10498 7.58369 4.08485 8.46409 5.27035 8.46409C6.56443 8.46409 7.6135 7.41502 7.6135 6.12094C7.6135 4.82681 6.56443 3.77777 5.27035 3.77777C5.24108 3.77777 5.21194 3.7783 5.18293 3.77936C5.33898 3.75147 5.49969 3.73691 5.66379 3.73691ZM7.28005 6.12094C7.28005 5.01099 6.3803 4.11119 5.27035 4.11119C4.1604 4.11119 3.26061 5.01099 3.26061 6.12094C3.26061 7.23084 4.1604 8.13063 5.27035 8.13063C6.3803 8.13063 7.28005 7.23084 7.28005 6.12094Z" fill="#D1D1D1"/>
</g>
<defs>
<clipPath id="clip0_43_1846">
<rect width="72" height="17.8935" fill="white"/>
</clipPath>
</defs>
</svg>

<svg xmlns="http://www.w3.org/2000/svg" width="72" height="18" fill="none" viewBox="0 0 72 18"><g fill="#d1d1d1" clip-path="url(#a)"><path d="M21.668 12.506h5.092v-1.534h-3.282V5.195h-1.81zM29.777 11.483c-.726 0-1.104-.634-1.104-1.585s.378-1.595 1.104-1.595 1.114.644 1.114 1.595c0 .95-.388 1.585-1.114 1.585m.01 1.186c1.687 0 2.792-1.197 2.792-2.771 0-1.575-1.105-2.771-2.792-2.771-1.677 0-2.801 1.196-2.801 2.77 0 1.576 1.124 2.772 2.801 2.772M35.499 14.316c.777 0 1.462-.174 1.922-.583.42-.379.695-.951.695-1.739V7.271h-1.595v.562h-.02c-.307-.44-.777-.716-1.472-.716-1.299 0-2.199 1.084-2.199 2.618 0 1.605 1.094 2.484 2.27 2.484a1.67 1.67 0 0 0 1.34-.603h.04v.522c0 .633-.296 1.002-1.002 1.002-.552 0-.828-.236-.92-.512h-1.615c.163 1.094 1.114 1.688 2.556 1.688m-.01-3.334c-.624 0-1.033-.511-1.033-1.298 0-.798.409-1.31 1.033-1.31.695 0 1.063.594 1.063 1.3 0 .736-.337 1.308-1.063 1.308M41.396 11.483c-.726 0-1.104-.634-1.104-1.585s.378-1.595 1.104-1.595 1.115.644 1.115 1.595c0 .95-.389 1.585-1.115 1.585m.01 1.186c1.687 0 2.792-1.197 2.792-2.771 0-1.575-1.105-2.771-2.792-2.771-1.676 0-2.801 1.196-2.801 2.77 0 1.576 1.125 2.772 2.801 2.772M44.684 12.506h1.667V7.271h-1.667zm0-5.961h1.667v-1.35h-1.667zM47.074 14.234h1.667v-2.27h.02c.328.44.808.705 1.483.705 1.37 0 2.28-1.084 2.28-2.78 0-1.575-.849-2.772-2.24-2.772-.715 0-1.226.317-1.584.787h-.03v-.633h-1.596zm2.74-2.853c-.715 0-1.124-.583-1.124-1.432 0-.848.368-1.492 1.094-1.492.716 0 1.053.593 1.053 1.492 0 .89-.389 1.432-1.022 1.432M55.238 12.67c1.37 0 2.382-.594 2.382-1.739 0-1.34-1.084-1.575-2.004-1.728-.665-.123-1.258-.174-1.258-.542 0-.327.317-.48.726-.48.46 0 .777.143.839.613h1.533c-.081-1.033-.879-1.677-2.362-1.677-1.237 0-2.26.573-2.26 1.677 0 1.227.972 1.472 1.882 1.626.695.123 1.33.174 1.33.644 0 .337-.318.521-.819.521-.552 0-.9-.255-.96-.777h-1.575c.05 1.156 1.012 1.861 2.546 1.861M59.884 12.658c.726 0 1.186-.286 1.564-.797h.031v.644h1.595V7.27h-1.667v2.924c0 .624-.347 1.053-.92 1.053-.532 0-.787-.317-.787-.89V7.27h-1.657v3.435c0 1.166.634 1.953 1.84 1.953M63.799 12.506h1.667V9.57c0-.624.306-1.063.828-1.063.5 0 .736.327.736.89v3.108h1.666V9.57c0-.624.297-1.063.829-1.063.5 0 .736.327.736.89v3.108h1.667V9.1c0-1.176-.593-1.984-1.78-1.984-.674 0-1.237.286-1.646.92h-.02c-.266-.562-.787-.92-1.473-.92-.756 0-1.257.358-1.584.9h-.031v-.746h-1.595z"/><path fill-rule="evenodd" d="M8.812.41a8.687 8.687 0 1 1 0 17.375 8.687 8.687 0 0 1 0-17.375m8.354 8.688A8.354 8.354 0 0 0 7.714.815q.348-.03.705-.03a7.983 7.983 0 1 1-7.953 8.68 8.354 8.354 0 0 0 16.7-.367m-1.098-.33a7.65 7.65 0 0 0-8.661-7.584q.306-.026.618-.026A7.278 7.278 0 1 1 .776 9.086a7.65 7.65 0 0 0 15.292-.319M8.025 1.491a6.944 6.944 0 1 1-6.94 7.21 6.573 6.573 0 1 0 5.99-7.146q.466-.064.95-.064m5.846 6.614a6.24 6.24 0 0 0-7.097-6.181q.23-.018.464-.018a5.868 5.868 0 1 1-5.841 6.432 6.24 6.24 0 0 0 12.474-.233M7.238 2.24a5.534 5.534 0 1 1-5.532 5.715 5.164 5.164 0 1 0 4.75-5.66q.383-.055.782-.055m4.436 5.204a4.83 4.83 0 0 0-5.546-4.777q.16-.012.323-.012a4.458 4.458 0 1 1-4.434 4.917 4.83 4.83 0 0 0 9.657-.128M6.451 2.989A4.124 4.124 0 1 1 2.328 7.2a3.754 3.754 0 1 0 3.494-4.163q.307-.048.63-.048m3.026 3.793a3.42 3.42 0 0 0-3.976-3.374q.08-.005.163-.005a3.048 3.048 0 1 1-3.026 3.423 3.42 3.42 0 0 0 6.84-.044M5.664 3.737A2.715 2.715 0 1 1 2.949 6.44 2.344 2.344 0 1 0 5.183 3.78q.235-.042.48-.042M7.28 6.12a2.01 2.01 0 1 0-4.02 0 2.01 2.01 0 0 0 4.02 0" clip-rule="evenodd"/></g><defs><clipPath id="a"><path fill="#fff" d="M0 0h72v17.893H0z"/></clipPath></defs></svg>
